symbols/web/photo_album/materialsymbolsrounded/photo_album_wght100gradN25fill1_48px.svg

<svg xmlns="http://www.w3.org/2000/svg" height="48" width="48"><path d="M13.3 41.4q-1.15 0-1.925-.775-.775-.775-.775-1.925V9.3q0-1.15.775-1.925Q12.15 6.6 13.3 6.6h21.4q1.15 0 1.925.775.775.775.775 1.925v29.4q0 1.15-.775 1.925-.775.775-1.925.775Zm13.1-22.85 2.55-1.5 2.55 1.5q.4.15.75-.025t.35-.625V7.7h-7.3v10.15q0 .5.35.675.35.175.75.025Zm-9 16.2h13.65q.5 0 .7-.425.2-.425-.05-.825l-3.65-4.7q-.2-.25-.55-.25-.35 0-.55.25l-4.4 5.4-2.7-3.05q-.25-.25-.6-.25t-.55.3l-1.85 2.3q-.25.45-.075.85.175.4.625.4Z"/></svg>

<svg xmlns="http://www.w3.org/2000/svg" height="48" width="48"><path d="M13.3 41.4Q12.15 41.4 11.375 40.625Q10.6 39.85 10.6 38.7V9.3Q10.6 8.15 11.375 7.375Q12.15 6.6 13.3 6.6H34.7Q35.85 6.6 36.625 7.375Q37.4 8.15 37.4 9.3V38.7Q37.4 39.85 36.625 40.625Q35.85 41.4 34.7 41.4ZM26.4 18.55 28.95 17.05 31.5 18.55Q31.9 18.7 32.25 18.525Q32.6 18.35 32.6 17.9V7.7H25.3V17.85Q25.3 18.35 25.65 18.525Q26 18.7 26.4 18.55ZM17.4 34.75H31.05Q31.55 34.75 31.75 34.325Q31.95 33.9 31.7 33.5L28.05 28.8Q27.85 28.55 27.5 28.55Q27.15 28.55 26.95 28.8L22.55 34.2L19.85 31.15Q19.6 30.9 19.25 30.9Q18.9 30.9 18.7 31.2L16.85 33.5Q16.6 33.95 16.775 34.35Q16.95 34.75 17.4 34.75Z"/></svg>
